Simply-Black-Circles/scalable/emotes/face-smile.svg

<svg xmlns="http://www.w3.org/2000/svg" width="48" height="48" viewBox="0 0 12.7 12.7"><path d="M6.34.07a6.29 6.29 0 0 0-6.29 6.3 6.29 6.29 0 0 0 6.3 6.28 6.29 6.29 0 0 0 6.28-6.29A6.29 6.29 0 0 0 6.34.07zM6.32 1l.01.01a5.4 5.4 0 0 1 5.4 5.4 5.4 5.4 0 0 1-5.4 5.41 5.4 5.4 0 0 1-5.41-5.4A5.4 5.4 0 0 1 6.32 1zm2.02 2.54a.66 1.55 0 0 0-.65 1.55.66 1.55 0 0 0 .65 1.54A.66 1.55 0 0 0 9 5.1a.66 1.55 0 0 0-.66-1.55zm-3.98.03a.66 1.55 0 0 0-.66 1.55.66 1.55 0 0 0 .66 1.54A.66 1.55 0 0 0 5 5.12a.66 1.55 0 0 0-.65-1.55zm3.97.41a.2.3 0 0 1 .2.3.2.3 0 0 1-.2.3.2.3 0 0 1-.2-.3.2.3 0 0 1 .2-.3zm-3.99.03a.2.3 0 0 1 .2.3.2.3 0 0 1-.2.3.2.3 0 0 1-.2-.3.2.3 0 0 1 .2-.3zm5.2 3.37c-.02 0-.03 0-.05.02-2 1.94-4.09 2.2-6.29 0-.07-.08-.07.08-.07.19 0 .1 0 .1.07.19 2.1 2.13 4.2 2.09 6.3 0 .06-.08.04-.11.04-.22 0-.08.02-.17 0-.18zM5.56 10c-.06.13-.1.26 0 .39.59.25 1.1.19 1.6 0a.4.4 0 0 0 0-.4c-.5.2-1.02.27-1.6 0z" fill="#1a1a1a"/></svg>

<?xml version="1.0" encoding="UTF-8" standalone="no"?>
<svg
   xmlns:dc="http://purl.org/dc/elements/1.1/"
   xmlns:cc="http://creativecommons.org/ns#"
   xmlns:rdf="http://www.w3.org/1999/02/22-rdf-syntax-ns#"
   xmlns:svg="http://www.w3.org/2000/svg"
   xmlns="http://www.w3.org/2000/svg"
   xmlns:sodipodi="http://sodipodi.sourceforge.net/DTD/sodipodi-0.dtd"
   xmlns:inkscape="http://www.inkscape.org/namespaces/inkscape"
   width="48"
   height="48"
   viewBox="0 0 12.7 12.7"
   version="1.1"
   id="svg4"
   sodipodi:docname="face-smile.svg"
   inkscape:version="0.92.4 (5da689c313, 2019-01-14)">
  <metadata
     id="metadata10">
    <rdf:RDF>
      <cc:Work
         rdf:about="">
        <dc:format>image/svg+xml</dc:format>
        <dc:type
           rdf:resource="http://purl.org/dc/dcmitype/StillImage" />
        <dc:title></dc:title>
      </cc:Work>
    </rdf:RDF>
  </metadata>
  <defs
     id="defs8" />
  <sodipodi:namedview
     pagecolor="#ffffff"
     bordercolor="#666666"
     borderopacity="1"
     objecttolerance="10"
     gridtolerance="10"
     guidetolerance="10"
     inkscape:pageopacity="0"
     inkscape:pageshadow="2"
     inkscape:window-width="1087"
     inkscape:window-height="480"
     id="namedview6"
     showgrid="false"
     inkscape:zoom="4.9166667"
     inkscape:cx="2.1355932"
     inkscape:cy="24"
     inkscape:window-x="0"
     inkscape:window-y="25"
     inkscape:window-maximized="0"
     inkscape:current-layer="svg4" />
  <path
     d="M 6.34,0.07 A 6.29,6.29 0 0 0 0.05,6.37 6.29,6.29 0 0 0 6.35,12.65 6.29,6.29 0 0 0 12.63,6.36 6.29,6.29 0 0 0 6.34,0.07 Z M 6.32,1 6.33,1.01 a 5.4,5.4 0 0 1 5.4,5.4 5.4,5.4 0 0 1 -5.4,5.41 A 5.4,5.4 0 0 1 0.92,6.42 5.4,5.4 0 0 1 6.32,1 Z M 8.34,3.54 A 0.66,1.55 0 0 0 7.69,5.09 0.66,1.55 0 0 0 8.34,6.63 0.66,1.55 0 0 0 9,5.1 0.66,1.55 0 0 0 8.34,3.55 Z M 4.36,3.57 A 0.66,1.55 0 0 0 3.7,5.12 0.66,1.55 0 0 0 4.36,6.66 0.66,1.55 0 0 0 5,5.12 0.66,1.55 0 0 0 4.35,3.57 Z m 3.97,0.41 a 0.2,0.3 0 0 1 0.2,0.3 0.2,0.3 0 0 1 -0.2,0.3 0.2,0.3 0 0 1 -0.2,-0.3 0.2,0.3 0 0 1 0.2,-0.3 z M 4.34,4.01 a 0.2,0.3 0 0 1 0.2,0.3 0.2,0.3 0 0 1 -0.2,0.3 0.2,0.3 0 0 1 -0.2,-0.3 0.2,0.3 0 0 1 0.2,-0.3 z m 5.2,3.37 c -0.02,0 -0.03,0 -0.05,0.02 -2,1.94 -4.09,2.2 -6.29,0 -0.07,-0.08 -0.07,0.08 -0.07,0.19 0,0.1 0,0.1 0.07,0.19 2.1,2.13 4.2,2.09 6.3,0 0.06,-0.08 0.04,-0.11 0.04,-0.22 0,-0.08 0.02,-0.17 0,-0.18 z M 5.56,10 c -0.06,0.13 -0.1,0.26 0,0.39 0.59,0.25 1.1,0.19 1.6,0 a 0.4,0.4 0 0 0 0,-0.4 c -0.5,0.2 -1.02,0.27 -1.6,0 z"
     id="path2"
     inkscape:connector-curvature="0"
     style="fill:#1a1a1a" />
</svg>
